X:783
T:Pease Strae
R:Reel
B:The Athole Collection
M:C|
L:1/8
K:D
A|defd gefd|eA A/A/A c2 c>e|defd gefd|egfe d2d:|
f|afdf afdf|eA A/A/A c2 c>f|afdf afdf|egfe d2 d>f|
afdf afdf|eA A/A/A c2 c>f|afge fdec|Agfe d2d||

